X:1
T:Sweet love, O cease thy flying - Kirbye
T:James Gibb editions
T:#
%%score { 1 | 2 } 3 4 5
L:1/8
M:4/4
K:G
V:1 treble nm="Soprano I" snm="S"
V:2 treble 
V:3 treble nm="Alto" snm="A"
V:4 treble-8 nm="Tenor" snm="T"
V:5 bass nm="Bass" snm="B"
V:1
"^George Kirbye\n(1565-1634)" z4"^Sweet love, O cease thy flying" A4- | A2 ^G2 z2 G2 | %2
w: Sweet|* love, sweet|
 A2 ^G2 A2 B2 | (c3 B/A/ ^G2) A2 |[M:4/4] z4 e4 | e4 z2 B2 | c2 B2 c2 d2 | (e3 d/c/ B2) A2 | %8
w: love, O cease thy|fly\- * * * ing,|sweet|love, sweet|love, O cease thy|fly\- * * * ing|
 z2 c2 A3 A | A4 z2 A2 | (^G2 A4 G2) | A4 z2 e2 | =f3 e d4- | d2 c2 B4 | ^c4 z2 =c2 | B6 e2 | %16
w: And pi- ty|me now|dy\- * *|ing. To|ease my heart|* dis- tress-|ed, to|ease my|
 (edcB A4- | A2) G2 F4 | ^G4 z2 B2 | B2 e2 d2 c2 | %20
w: heart * * * *|* dis- tress-|ed, With|haste make thy re-|
[Q:1/4=120][Q:1/4=120][Q:1/4=120][Q:1/4=120] (BA^GF E2) ee | c3 d B2 c2 | B4 A4 | z8 | z8 | z8 | %26
w: turn\- * * * * ing And|quench my rest- less|burn- ing,||||
 z8 | z4 z2 e2 | c3 d B2 c2 | (B2 A4 ^G2) | A8 | A8 | B6 B2 | B4 B4 | B8 | B8 | c2 BA ^G2 A2 | z8 | %38
w: |and|quench my rest- less|burn\- * *|ing,|That|I by|you re-|dress-|ed|May be re- vi- ved,||
 e2 dc B2 E2 | G3 A B2 e2 | e4 e4 | z8 | e2 dc B2 E2 | =G3 A B2 z2 | e2 dc B2 E2 | G3 A B2 e2 | %46
w: may be re- viv'd, and|hon- our you as|bless- ed,||may be re- viv'd, and|hon- our you,|may be re- viv'd, and|hon- our you as|
 e8 | e8 | d8 | d6 d2 | d2 B2 (e4- | e2 ^d^c d4) | e8 | e2 dc B2 A2 | z8 | c2 BA ^G2 e2 | %56
w: bless-|ed.|That|I by|you re- dress\-||ed|May be re- vi- ved,||may be re- viv'd, and|
 e3 e d2 c2 | B4 ^c4 | z8 | =c2 BA ^G2 A2 | z4 e2 dc | B2 E2[Q:1/4=118] G3[Q:1/4=116] A | %62
w: hon- our you as|bless- ed,||may be re- vi- ved,|may be re-|viv'd, and hon- our|
[Q:1/4=114] B2[Q:1/4=112] e2[Q:1/4=110] (e3[Q:1/4=108] d/[Q:1/4=107]c/ | %63
w: you as bless\- * *|
[Q:1/4=106] B2[Q:1/4=104] A2[Q:1/4=101] B4) |[Q:1/4=100] !fermata!^c8 |] %65
w: |ed.|
V:2
 z8 | z8 | z8 | z8 |[M:4/4] A4 c4 | z2 B2 e4 | z2 ^G2 A2 B2 | (=c3 B/A/ ^G2) A2 | z2 A2 c3 d | %9
w: ||||Sweet love,|sweet love,|O cease thy|fly\- * * * ing|And pi- ty|
 e4 =f4 | d8- | d4 ^c4 | z2 A2 A3 B | ^G2 A2 G4 | A8 | z4 z2 B2 | c3 d e2 c2 | B8 | B4 z2 =G2 | %19
w: me now|dy\-|* ing.|To ease my|heart dis- tress-|ed,|to|ease my heart dis-|tress-|ed, With|
 G2 c2 B2 A2 | (^G3 A B2) cc | A3 B ^G2 A2- | A2 ^G2 A4 | z8 | z8 | z2 d2 B3 c | A2 c2 B4 | c8 | %28
w: haste make thy re-|turn\- * * ing And|quench my rest- less|* burn- ing,|||and quench my|rest- less burn-|ing,|
 z2 A2 e3 e | e2 c2 B4 | ^c8 | d8 | d6 d2 | d2 B2 (e4- | e2 ^d^c d4) | e8 | e2 dc B2 A2 | z8 | %38
w: and quench my|rest- less burn-|ing,|That|I by|you re- dress\-||ed|May be re- vi- ved,||
 c2 BA ^G2 e2 | e3 e d2 c2 | B4 ^c4 | z8 | c2 BA ^G2 A2 | z4 e2 dc | B2 E2 G3 A | B2 e2 (e3 d/c/ | %46
w: may be re- viv'd, and|hon- our you as|bless- ed,||may be re- vi- ved,|may be re-|viv'd, and hon- our|you as bless\- * *|
 B2 A2 B4) | ^c8 |"^That" A8 |"^I" B6 B2 | B4 B4 | B8 | B8 | c2 BA ^G2 A2 | z8 | e2 dc B2 E2 | %56
w: |ed.||* by|you re-|dress-|ed|May be re- vi- ved,||may be re- viv'd, and|
 G3 A B2 e2 | e4 e4 | z8 | e2 dc B2 E2 | G3 A B2 z2 | e2 dc B2 E2 | G3 A B2 e2 | e8 | %64
w: hon- our you as|bless- ed,||may be re viv'd, and|hon- our you,|may be re- viv'd, and|hon- our you as|bless-|
 !fermata!e8 |] %65
w: ed.|
V:3
 z4 E4 | E4 z2 B,2 | C2 E2 E2 =G2 | (G3 =F E2) E2 |[M:4/4] z4 z2 A2- | A2 ^G2 z2 E2 | %6
w: Sweet|love, sweet|love, O cease thy|fly\- * * ing,|sweet|* love, sweet|
 A2 E2 A2 =G2 | (CB,CD E2) A,2 | z2 E2 =F3 F | E4 z2 A,2 | B,4 B,4 | z4 z2 A,2 | D3 E =F2 D2 | E8 | %14
w: love, O cease thy|fly\- * * * * ing|And pi- ty|me now|dy- ing.|To|ease my heart dis-|tress-|
 E4 z2 E2 | G3 A B2 ^G2 | A3 (=G/F/) E2 F2 | (^D2 E4 D2) | E4 z2 E2 | E2 C2 G2 A2 | E4 E2 C2 | %21
w: ed, to|ease my heart, to|ease my * heart dis-|tress\- * *|ed, With|haste make thy re-|turn- ing And|
 =F3 D E2 A,2 | E4 A,4 | z2 E2 E2 A2 | G2 =F2 ED^CB, | A,2 AA G3 G | =F2 G2 G4 | G2 G2 G3 G | %28
w: quench my rest- less|burn- ing,|with haste make|thy re- turn\- * * *|* ing and quench my|rest- less burn-|ing, and quench my|
 =F4 E4 | E8 | E8 | F8 | G6 G2 | G4 G4 | F8 | ^G8 | z8 | E2 ED E2 E2 | C2 =GA E2 G2 | E3 F ^G2 A2 | %40
w: rest- less|burn-|ing,|That|I by|you re-|dress-|ed||May be re- vi- ved,|may be re- viv'd, and|hon- our you as|
 ^G4 A4 | E2 ED E2 E2 | z8 | E2 DC B,2 E,2 | G,3 A, B,4 | z2 E2 E3 F | ^G2 A4 G2 | A8 | F8 | %49
w: bless- ed,|may be re- vi- ved,||may be re- viv'd, and|hon- our you,|and hon- our|you as bless-|ed.|That|
 G6 G2 | G4 G4 | F8 | ^G8 | z8 | E2 ED E2 E2 | C2 =GA E2 G2 | E3 F ^G2 A2 | ^G4 A4 | E2 ED E2 E2 | %59
w: I by|you re-|dress-|ed||May be re- vi- ved,|may be re- viv'd, and|hon- our you as|bless- ed,|may be re- vi- ved,|
 z8 | E2 DC B,2 E,2 | G,3 A, B,4 | z2 E2 E3 F | ^G2 A4 G2 | !fermata!A8 |] %65
w: |may be re- viv'd, and|hon- our you,|and hon- our|you as bless-|ed.|
V:4
 A4 c4 | z2 B2 e4 | z2 B2 c2 d2 | (e3 d/c/ B2) A2 |[M:4/4][K:treble-8] z4 A4 | e4 z4 | z8 | z8 | %8
w: Sweet love,|sweet love,|O cease thy|fly\- * * * ing,|sweet|love,|||
 z2 c2 c2 A2 | A6 d2 | (d6 e2 | =f4) e4 | z8 | z4 z2 E2 | A3 B =c2 A2 | e8 | A8 | z8 | z8 | z8 | %20
w: And pi- ty|me now|dy\- *|* ing.||To|ease my heart dis-|tress-|ed,||||
 z8 | z8 | z8 | z2 c2 c2 =f2 | e2 d2 ^c3 d | e2 =ff d3 e | c2 e2 d4 | e2 e2 e3 e | %28
w: |||With haste make|thy re- turn\- *|* ing And quench my|rest- less burn-|ing, and quench my|
 A2 A2 (^G!courtesy!^FEF | ^G2 A2 B4) | A8 | d8 | d6 d2 | d4 e4 | f4 B4- | B8 | z8 | c2 BA ^G2 A2 | %38
w: rest- less burn\- * * *||ing,|That|I by|you re-|dress- ed|||May be re- vi- ved,|
 z4 z2 c2 | c3 c B2 A2 | e4 A4 | =c2 BA ^G2 A2 | z4 e2 dc | B2 E2 G3 A | B2 z2 e2 dc | B2 E2 G3 A | %46
w: and|hon- our you as|bless- ed,|may be re- vi- ved,|may be re-|viv'd, and hon- our|you, may be re-|viv'd, and hon- our|
 B2 c2 B4 | A8 | d8 | d6 d2 | d4 e4 | !courtesy!^f4 B4- | B8 | z8 | c2 BA ^G2 A2 | z4 z2 c2 | %56
w: you as bless-|ed.|That|I by|you re-|dress- ed|||May be re- vi- ved,|and|
 c3 c B2 A2 | e4 A4 | =c2 BA ^G2 A2 | z4 e2 dc | B2 E2 G3 A | B2 z2 e2 dc | B2 E2 G3 A | B2 c2 B4 | %64
w: hon- our you as|bless- ed,|may be re- vi- ved,|may be re-|viv'd, and hon- our|you, may be re-|viv'd, and hon- our|you as bless-|
 !fermata!A8 |] %65
w: ed.|
V:5
 z4 A,,4 | E,4 z2 E,2 | A,2 E,2 A,2 =G,2 | (C,B,,C,D, E,2) A,,2 |[M:4/4] z8 | z8 | z8 | z8 | %8
w: Sweet|love, sweet|love, O cease thy|fly\- * * * * ing|||||
 z2 A,2 =F,3 (E,/D,/) | ^C,4 D,4 | B,,8 | A,,8 | z8 | z8 | z8 | z4 z2 E,2 | A,3 B, C2 A,2 | B,8 | %18
w: And pi- ty *|me now|dy-|ing.||||To|ease my heart dis-|tress-|
 E,8 | z8 | z8 | z8 | z8 | z2 A,2 A,2 =F,2 | C2 D2 A,4 | A,2 D,2 G,3 E, | =F,2 C,2 G,4 | %27
w: ed,|||||With haste make|thy re- turn-|ing And quench my|rest- less burn-|
 C,4 z2 C,2 | =F,3 D, E,2 A,,2 | E,8 | A,,8 | z4 D,4 | G,6 G,2 | G,4 E,4 | B,8 | E,8 | z8 | %37
w: ing, and|quench my rest- less|burn-|ing,|That|I by|you re-|dress-|ed||
 A,2 =G,=F, E,2 A,,2 | z8 | z8 | z8 | A,2 G,=F, E,2 A,,2 | C,3 D, E,2 A,2 | E,8- | E,8 | E,8 | %46
w: May be re- vi- ved,||||may be re- viv'd, and|hon- our you as|bless\-|||
 E,8 | A,,8 | z4 D,4 | G,6 G,2 | G,4 E,4- | B,8 | E,8 | z8 | A,2 =G,=F, E,2 A,,2 | z8 | z8 | z8 | %58
w: |ed.|That|I by|you re-|dress-|ed||May be re- vi- ved,||||
 A,2 G,=F, E,2 A,,2 | C,3 D, E,2 A,2 | E,8- | E,8 | E,8 | E,8 | !fermata!A,,8 |] %65
w: may be re- viv'd, and|hon- our you as|bless\-||||ed.|

